**harmony	**harte	**kern	**silbe	**kern	**silbe	**kern	**silbe	**rhyme	**timestamp	**phrase
*M4/4	*M4/4	*ICvox	*	*ICvox	*	*ICvox	*	*	*	*
*	*	*VRlead*VRresponse	*	*VRharmonize	*	*VRbacking	*	*	*	*
*	*	*Hstimme	*	*Nstimme	*	*Nstimme	*	*	*	*
*d:	*d:	*d:	*	*d:	*	*d:	*	*	*d:	*d:
*	*	*M4/4	*	*M4/4	*	*M4/4	*	*	*	*
*	*	*clefC3	*	*clefF4	*	*clefG2	*	*	*	*
1r;	1r	r;	.	r;	.	r;	.	.	0	.
=1	=1	=1	=1	=1	=1	=1	=1	=1	=1	=1
*>Letter>A	*>Letter>A	*>Letter>A	*>Letter>A	*>Letter>A	*>Letter>A	*>Letter>A	*>Letter>A	*>Letter>A	*>Letter>A	*>Letter>A
*>Label>Intro	*>Label>Intro	*>Label>Intro	*>Label>Intro	*>Label>Intro	*>Label>Intro	*>Label>Intro	*>Label>Intro	*>Label>Intro	*>Label>Intro	*>Label>Intro
1Dm	D:min	1r	.	1r	.	1r	.	.	0.232	newline
=2	=2	=2	=2	=2	=2	=2	=2	=2	=2	=2
1Dm	D:min	1r	.	1r	.	1r	.	.	1.868	.
=3	=3	=3	=3	=3	=3	=3	=3	=3	=3	=3
1Dm	D:min	1r	.	1r	.	1r	.	.	3.503	.
=4	=4	=4	=4	=4	=4	=4	=4	=4	=4	=4
1Dm	D:min	1r	.	1r	.	1r	.	.	5.138	.
=5	=5	=5	=5	=5	=5	=5	=5	=5	=5	=5
1Dm	D:min	1r	.	1r	.	1r	.	.	6.774	newline
=6	=6	=6	=6	=6	=6	=6	=6	=6	=6	=6
1Dm	D:min	1r	.	1r	.	1r	.	.	8.378	.
=7	=7	=7	=7	=7	=7	=7	=7	=7	=7	=7
1Dm	D:min	1r	.	1r	.	1r	.	.	9.983	.
=8	=8	=8	=8	=8	=8	=8	=8	=8	=8	=8
1Dm	D:min	2r	.	1r	.	1r	.	.	11.588	.
.	.	8fq	_	.	.	.	.	.	.	.
.	.	2g	Co-	.	.	.	.	.	.	.
=9	=9	=9	=9	=9	=9	=9	=9	=9	=9	=9
*>Letter>B	*>Letter>B	*>Letter>B	*>Letter>B	*>Letter>B	*>Letter>B	*>Letter>B	*>Letter>B	*>Letter>B	*>Letter>B	*>Letter>B
*>Label>Verse	*>Label>Verse	*>Label>Verse	*>Label>Verse	*>Label>Verse	*>Label>Verse	*>Label>Verse	*>Label>Verse	*>Label>Verse	*>Label>Verse	*>Label>Verse
1Dm	D:min	6f	-ver	1r	.	1r	.	.	13.192	newline
.	.	6f	me	.	.	.	.	A	.	.
.	.	6r	.	.	.	.	.	.	.	.
.	.	2r	.	.	.	.	.	.	.	.
=10	=10	=10	=10	=10	=10	=10	=10	=10	=10	=10
1Dm	D:min	2r	.	1r	.	1r	.	.	14.811	.
.	.	8dq	_	.	.	.	.	.	.	.
.	.	4e	when	.	.	.	.	.	.	.
.	.	4d	I	.	.	.	.	.	.	.
=11	=11	=11	=11	=11	=11	=11	=11	=11	=11	=11
1Dm	D:min	4d	run	1r	.	1r	.	.	16.43	.
.	.	4r	.	.	.	.	.	.	.	.
.	.	2r	.	.	.	.	.	.	.	.
=12	=12	=12	=12	=12	=12	=12	=12	=12	=12	=12
1Dm	D:min	2r	.	1r	.	1r	.	.	18.049	.
.	.	8fq	_	.	.	.	.	.	.	.
.	.	4.g	Co-	.	.	.	.	.	.	.
.	.	[8f	-ver	.	.	.	.	.	.	.
=13	=13	=13	=13	=13	=13	=13	=13	=13	=13	=13
1Dm	D:min	6f]	_	1r	.	1r	.	.	19.667	newline
.	.	6f	me	.	.	.	.	A	.	.
.	.	6r	.	.	.	.	.	.	.	.
.	.	2r	.	.	.	.	.	.	.	.
=14	=14	=14	=14	=14	=14	=14	=14	=14	=14	=14
1Dm	D:min	2r	.	1r	.	1r	.	.	21.282	.
.	.	8dq	_	.	.	.	.	.	.	.
.	.	4e	through	.	.	.	.	.	.	.
.	.	8d	the	.	.	.	.	.	.	.
.	.	[8d	fi	.	.	.	.	.	.	.
=15	=15	=15	=15	=15	=15	=15	=15	=15	=15	=15
1Dm	D:min	8d]	_	1r	.	1r	.	.	22.896	.
.	.	8d	re	.	.	.	.	.	.	.
.	.	4r	.	.	.	.	.	.	.	.
.	.	2r	.	.	.	.	.	.	.	.
=16	=16	=16	=16	=16	=16	=16	=16	=16	=16	=16
1Dm	D:min	1r	.	1r	.	1r	.	.	24.51	.
=17	=17	=17	=17	=17	=17	=17	=17	=17	=17	=17
1Dm	D:min	8d	Some-	1r	.	1r	.	.	26.125	newline
.	.	4d	-thing	.	.	.	.	.	.	.
.	.	8f	knocked	.	.	.	.	.	.	.
.	.	8r	.	.	.	.	.	.	.	.
.	.	4f	me	.	.	.	.	a	.	.
.	.	8a	out	.	.	.	.	.	.	.
=18	=18	=18	=18	=18	=18	=18	=18	=18	=18	=18
1Dm	D:min	8r	.	1r	.	1r	.	.	27.736	.
.	.	4a	the	.	.	.	.	.	.	.
.	.	8fq	_	.	.	.	.	.	.	.
.	.	[8g	trees	.	.	.	.	A	.	.
.	.	16g]	_	.	.	.	.	.	.	.
.	.	16f	_	.	.	.	.	.	.	.
.	.	[8d	_	.	.	.	.	.	.	.
.	.	4d]	_	.	.	.	.	.	.	.
=19	=19	=19	=19	=19	=19	=19	=19	=19	=19	=19
1Dm	D:min	8r	.	1r	.	1r	.	.	29.347	.
.	.	8d	n-	.	.	.	.	.	.	.
.	.	8d	-now	.	.	.	.	.	.	.
.	.	8d	I'm	.	.	.	.	.	.	.
.	.	8f	on	.	.	.	.	.	.	.
.	.	4f	my	.	.	.	.	.	.	.
.	.	8ccq	_	.	.	.	.	.	.	.
.	.	[8dd	knees	.	.	.	.	A	.	.
=20	=20	=20	=20	=20	=20	=20	=20	=20	=20	=20
1Dm	D:min	2dd]	_	1r	.	1r	.	.	30.958	.
.	.	8r	.	.	.	.	.	.	.	.
.	.	8fq	_	.	.	.	.	.	.	.
.	.	4g	co-	.	.	.	.	.	.	.
.	.	[8f	-ver	.	.	.	.	.	.	.
=21	=21	=21	=21	=21	=21	=21	=21	=21	=21	=21
1Dm	D:min	8f]	_	1r	.	1r	.	.	32.569	newline
.	.	8f	me	.	.	.	.	A	.	.
.	.	4r	.	.	.	.	.	.	.	.
.	.	2r	.	.	.	.	.	.	.	.
=22	=22	=22	=22	=22	=22	=22	=22	=22	=22	=22
1Dm	D:min	2r	.	1r	.	1r	.	.	34.191	.
.	.	8dq	_	.	.	.	.	.	.	.
.	.	4e	dar-	.	.	.	.	.	.	.
.	.	4d	-ling,	.	.	.	.	.	.	.
=23	=23	=23	=23	=23	=23	=23	=23	=23	=23	=23
1Dm	D:min	4d	please	1r	.	1r	.	A	35.812	.
.	.	4r	.	.	.	.	.	.	.	.
.	.	2r	.	.	.	.	.	.	.	.
=24	=24	=24	=24	=24	=24	=24	=24	=24	=24	=24
1Dm	D:min	8r	.	1r	.	1r	.	.	37.434	.
.	.	8a	Hey,	.	.	.	.	.	.	.
.	.	8g	_	.	.	.	.	.	.	.
.	.	8f	_	.	.	.	.	.	.	.
.	.	8gq	_	.	.	.	.	.	.	.
.	.	4a	hey,	.	.	.	.	.	.	.
.	.	4g	hey,	.	.	.	.	.	.	.
=25	=25	=25	=25	=25	=25	=25	=25	=25	=25	=25
*>Letter>C	*>Letter>C	*>Letter>C	*>Letter>C	*>Letter>C	*>Letter>C	*>Letter>C	*>Letter>C	*>Letter>C	*>Letter>C	*>Letter>C
*>Label>Chorus	*>Label>Chorus	*>Label>Chorus	*>Label>Chorus	*>Label>Chorus	*>Label>Chorus	*>Label>Chorus	*>Label>Chorus	*>Label>Chorus	*>Label>Chorus	*>Label>Chorus
.	.	8eq	_	.	.	.	.	.	.	.
1CM	C:maj	4f	mon-	1r	.	1r	.	.	39.055	newline
.	.	4e	-key	.	.	.	.	a	.	.
.	.	2r	.	.	.	.	.	.	.	.
=26	=26	=26	=26	=26	=26	=26	=26	=26	=26	=26
.	.	8eq	_	.	.	.	.	.	.	.
1CM	C:maj	4f	mon-	1r	.	1r	.	.	40.668	.
.	.	8e	-key	.	.	.	.	a	.	.
.	.	[8cc	_	.	.	.	.	.	.	.
.	.	4.cc]	_	.	.	.	.	.	.	.
.	.	8r	.	.	.	.	.	.	.	.
=27	=27	=27	=27	=27	=27	=27	=27	=27	=27	=27
.	.	8eq	_	.	.	.	.	.	.	.
1CM	C:maj	4f	mon-	1r	.	1r	.	.	42.281	.
.	.	4e	-key	.	.	.	.	a	.	.
.	.	2r	.	.	.	.	.	.	.	.
=28	=28	=28	=28	=28	=28	=28	=28	=28	=28	=28
1CM	C:maj	4r	.	1r	.	1r	.	.	43.894	.
.	.	8b-	don't	.	.	.	.	.	.	.
.	.	8b-	you	.	.	.	.	.	.	.
.	.	8b-	know	.	.	.	.	.	.	.
.	.	8a	you're	.	.	.	.	.	.	.
.	.	8a	gon-	.	.	.	.	.	.	.
.	.	[8g	-na	.	.	.	.	.	.	.
=29	=29	=29	=29	=29	=29	=29	=29	=29	=29	=29
1Dm	D:min	8g]	_	8r	.	1r	.	.	45.507	newline
.	.	8a	shock	8f	Shock	.	.	B	.	.
.	.	8r	.	8r	.	.	.	.	.	.
.	.	8g	the	8e	the	.	.	.	.	.
.	.	4g	mon-	4e	mon-	.	.	.	.	.
.	.	4f	-key!	4d	-key!	.	.	a	.	.
=30	=30	=30	=30	=30	=30	=30	=30	=30	=30	=30
1Dm	D:min	2r	.	1r	.	1r	.	.	47.131	.
.	.	4g	Hey,	.	.	.	.	.	.	.
.	.	8ddq	_	.	.	.	.	.	.	.
.	.	4f	hey!	.	.	.	.	.	.	.
=31	=31	=31	=31	=31	=31	=31	=31	=31	=31	=31
1Dm	D:min	1r	.	1r	.	1r	.	.	48.755	.
=32	=32	=32	=32	=32	=32	=32	=32	=32	=32	=32
1Dm	D:min	2r	.	1r	.	1r	.	.	50.379	.
.	.	8fq	_	.	.	.	.	.	.	.
.	.	4.g	Fox	.	.	.	.	B	.	.
.	.	[8f	the	.	.	.	.	.	.	.
=33	=33	=33	=33	=33	=33	=33	=33	=33	=33	=33
*>Letter>B	*>Letter>B	*>Letter>B	*>Letter>B	*>Letter>B	*>Letter>B	*>Letter>B	*>Letter>B	*>Letter>B	*>Letter>B	*>Letter>B
*>Label>Verse	*>Label>Verse	*>Label>Verse	*>Label>Verse	*>Label>Verse	*>Label>Verse	*>Label>Verse	*>Label>Verse	*>Label>Verse	*>Label>Verse	*>Label>Verse
1Dm	D:min	8f]	_	1r	.	1r	.	.	52.003	newline
.	.	4f	fox	.	.	.	.	B	.	.
.	.	8r	.	.	.	.	.	.	.	.
.	.	2r	.	.	.	.	.	.	.	.
=34	=34	=34	=34	=34	=34	=34	=34	=34	=34	=34
1Dm	D:min	2r	.	1r	.	1r	.	.	53.614	.
.	.	8dq	_	.	.	.	.	.	.	.
.	.	4e	rat	.	.	.	.	C	.	.
.	.	8d	on	.	.	.	.	.	.	.
.	.	8c	the	.	.	.	.	.	.	.
=35	=35	=35	=35	=35	=35	=35	=35	=35	=35	=35
1Dm	D:min	4d	rat	1r	.	1r	.	C	55.225	.
.	.	4r	.	.	.	.	.	.	.	.
.	.	2r	.	.	.	.	.	.	.	.
=36	=36	=36	=36	=36	=36	=36	=36	=36	=36	=36
1Dm	D:min	4r	.	1r	.	1r	.	.	56.836	.
.	.	8d	You	.	.	.	.	.	.	.
.	.	8d	can	.	.	.	.	.	.	.
.	.	8fq	_	.	.	.	.	.	.	.
.	.	4g	ape	.	.	.	.	.	.	.
.	.	8f	the	.	.	.	.	.	.	.
.	.	8f	ape,	.	.	.	.	.	.	.
=37	=37	=37	=37	=37	=37	=37	=37	=37	=37	=37
1Dm	D:min	1r	.	1r	.	1r	.	.	58.447	newline
=38	=38	=38	=38	=38	=38	=38	=38	=38	=38	=38
1Dm	D:min	4r	.	1r	.	1r	.	.	60.074	.
.	.	8r	.	.	.	.	.	.	.	.
.	.	8c	I	.	.	.	.	.	.	.
.	.	8dq	_	.	.	.	.	.	.	.
.	.	8e	know	.	.	.	.	.	.	.
.	.	8d	a-	.	.	.	.	.	.	.
.	.	4c	-bout	.	.	.	.	.	.	.
=39	=39	=39	=39	=39	=39	=39	=39	=39	=39	=39
1Dm	D:min	4d	that	1r	.	1r	.	C	61.7	.
.	.	4r	.	.	.	.	.	.	.	.
.	.	2r	.	.	.	.	.	.	.	.
=40	=40	=40	=40	=40	=40	=40	=40	=40	=40	=40
1Dm	D:min	2r	.	1r	.	1r	.	.	63.327	.
.	.	4r	.	.	.	.	.	.	.	.
.	.	8r	.	.	.	.	.	.	.	.
.	.	8d	There	.	.	.	.	.	.	.
=41	=41	=41	=41	=41	=41	=41	=41	=41	=41	=41
1Dm	D:min	8d	is	1r	.	1r	.	.	64.954	newline
.	.	4d	one	.	.	.	.	.	.	.
.	.	[8f	thing	.	.	.	.	.	.	.
.	.	8f]	_	.	.	.	.	.	.	.
.	.	4f	you	.	.	.	.	.	.	.
.	.	[8a	must	.	.	.	.	.	.	.
=42	=42	=42	=42	=42	=42	=42	=42	=42	=42	=42
1Dm	D:min	8a]	_	1r	.	1r	.	.	66.569	.
.	.	4f	be	.	.	.	.	.	.	.
.	.	8fq	_	.	.	.	.	.	.	.
.	.	8g	sure	.	.	.	.	D	.	.
.	.	8f	_	.	.	.	.	.	.	.
.	.	[8d	of	.	.	.	.	.	.	.
.	.	4d]	_	.	.	.	.	.	.	.
=43	=43	=43	=43	=43	=43	=43	=43	=43	=43	=43
1Dm	D:min	8r	.	1r	.	1r	.	.	68.185	.
.	.	8d	I	.	.	.	.	.	.	.
.	.	4d	can't	.	.	.	.	.	.	.
.	.	8f	take	.	.	.	.	.	.	.
.	.	8f	a-	.	.	.	.	.	.	.
.	.	8f	-ny-	.	.	.	.	.	.	.
.	.	8ccq	_	.	.	.	.	.	.	.
.	.	[8dd	-more	.	.	.	.	D	.	.
=44	=44	=44	=44	=44	=44	=44	=44	=44	=44	=44
1Dm	D:min	2dd]	_	1r	.	1r	.	.	69.801	.
.	.	4r	.	.	.	.	.	.	.	.
.	.	8fq	_	.	.	.	.	.	.	.
.	.	4g	Dar-	.	.	.	.	.	.	.
=45	=45	=45	=45	=45	=45	=45	=45	=45	=45	=45
1Dm	D:min	4f	-ling	1r	.	1r	.	.	71.417	newline
.	.	4r	.	.	.	.	.	.	.	.
.	.	2r	.	.	.	.	.	.	.	.
=46	=46	=46	=46	=46	=46	=46	=46	=46	=46	=46
1Dm	D:min	8r	.	1r	.	1r	.	.	73.028	.
.	.	8a	don't	.	.	.	.	.	.	.
.	.	8g	_	.	.	.	.	.	.	.
.	.	8f	you	.	.	.	.	.	.	.
.	.	8g	mon-	.	.	.	.	.	.	.
.	.	8f	-key	.	.	.	.	a	.	.
.	.	8g	with	.	.	.	.	.	.	.
.	.	8f	the	.	.	.	.	.	.	.
=47	=47	=47	=47	=47	=47	=47	=47	=47	=47	=47
1Dm	D:min	8f	mon-	1r	.	1r	.	.	74.638	.
.	.	4d	-key	.	.	.	.	a	.	.
.	.	8r	.	.	.	.	.	.	.	.
.	.	2r	.	.	.	.	.	.	.	.
=48	=48	=48	=48	=48	=48	=48	=48	=48	=48	=48
1Dm	D:min	8r	.	1r	.	1r	.	.	76.248	.
.	.	8a	Hey,	.	.	.	.	.	.	.
.	.	8g	_	.	.	.	.	.	.	.
.	.	8f	_	.	.	.	.	.	.	.
.	.	8gq	_	.	.	.	.	.	.	.
.	.	4a	hey,	.	.	.	.	.	.	.
.	.	4g	hey,	.	.	.	.	.	.	.
=49	=49	=49	=49	=49	=49	=49	=49	=49	=49	=49
*>Letter>C	*>Letter>C	*>Letter>C	*>Letter>C	*>Letter>C	*>Letter>C	*>Letter>C	*>Letter>C	*>Letter>C	*>Letter>C	*>Letter>C
*>Label>Chorus	*>Label>Chorus	*>Label>Chorus	*>Label>Chorus	*>Label>Chorus	*>Label>Chorus	*>Label>Chorus	*>Label>Chorus	*>Label>Chorus	*>Label>Chorus	*>Label>Chorus
.	.	8eq	_	.	.	.	.	.	.	.
1CM	C:maj	4f	mon-	1r	.	1r	.	.	77.858	newline
.	.	4e	-key	.	.	.	.	a	.	.
.	.	2r	.	.	.	.	.	.	.	.
=50	=50	=50	=50	=50	=50	=50	=50	=50	=50	=50
.	.	8eq	_	.	.	.	.	.	.	.
1CM	C:maj	4f	mon-	1r	.	1r	.	.	79.477	.
.	.	8e	-key	.	.	.	.	a	.	.
.	.	[8cc	_	.	.	.	.	.	.	.
.	.	4.cc]	_	.	.	.	.	.	.	.
.	.	8r	.	.	.	.	.	.	.	.
=51	=51	=51	=51	=51	=51	=51	=51	=51	=51	=51
.	.	8eq	_	.	.	.	.	.	.	.
1CM	C:maj	4f	mon-	1r	.	1r	.	.	81.095	.
.	.	4e	-key	.	.	.	.	a	.	.
.	.	2r	.	.	.	.	.	.	.	.
=52	=52	=52	=52	=52	=52	=52	=52	=52	=52	=52
1CM	C:maj	4r	.	1r	.	1r	.	.	82.714	.
.	.	8b-	Don't	.	.	.	.	.	.	.
.	.	8b-	you	.	.	.	.	.	.	.
.	.	8b-	know	.	.	.	.	.	.	.
.	.	8a	you're	.	.	.	.	.	.	.
.	.	8a	gon-	.	.	.	.	.	.	.
.	.	[8g	-na	.	.	.	.	.	.	.
=53	=53	=53	=53	=53	=53	=53	=53	=53	=53	=53
1Dm	D:min	8g]	_	8r	.	1r	.	.	84.332	newline
.	.	8a	shock	8f	Shock	.	.	B	.	.
.	.	8r	.	8r	.	.	.	.	.	.
.	.	8g	the	8e	the	.	.	.	.	.
.	.	4g	mon-	4e	mon-	.	.	.	.	.
.	.	4f	-key	4d	-key!	.	.	a	.	.
=54	=54	=54	=54	=54	=54	=54	=54	=54	=54	=54
1Dm	D:min	2r	.	1r	.	1r	.	.	85.955	.
.	.	4g	Hey,	.	.	.	.	.	.	.
.	.	8ddq	_	.	.	.	.	.	.	.
.	.	4f	hey	.	.	.	.	.	.	.
=55	=55	=55	=55	=55	=55	=55	=55	=55	=55	=55
1Dm	D:min	8r	.	8r	.	1r	.	.	87.578	.
.	.	8a	shock	8f	Shock	.	.	B	.	.
.	.	8r	.	8r	.	.	.	.	.	.
.	.	8g	the	8e	the	.	.	.	.	.
.	.	4g	mon-	4e	mon-	.	.	.	.	.
.	.	4f	-key	4d	-key!	.	.	a	.	.
=56	=56	=56	=56	=56	=56	=56	=56	=56	=56	=56
1Dm	D:min	8r	.	1r	.	1r	.	.	89.201	.
.	.	8a	Hey,	.	.	.	.	.	.	.
.	.	8g	_	.	.	.	.	.	.	.
.	.	8f	_	.	.	.	.	.	.	.
.	.	8gq	_	.	.	.	.	.	.	.
.	.	4a	hey,	.	.	.	.	.	.	.
.	.	4g	hey,	.	.	.	.	.	.	.
=57	=57	=57	=57	=57	=57	=57	=57	=57	=57	=57
*>Letter>D	*>Letter>D	*>Letter>D	*>Letter>D	*>Letter>D	*>Letter>D	*>Letter>D	*>Letter>D	*>Letter>D	*>Letter>D	*>Letter>D
*>Label>Bridge	*>Label>Bridge	*>Label>Bridge	*>Label>Bridge	*>Label>Bridge	*>Label>Bridge	*>Label>Bridge	*>Label>Bridge	*>Label>Bridge	*>Label>Bridge	*>Label>Bridge
1Dm	D:5	8f	yeah	1r	.	1r	.	.	90.824	newline
.	.	4d	_	.	.	.	.	.	.	.
.	.	8r	.	.	.	.	.	.	.	.
.	.	2r	.	.	.	.	.	.	.	.
=58	=58	=58	=58	=58	=58	=58	=58	=58	=58	=58
1Dm	D:5	2r	.	1r	.	1r	.	.	92.438	.
.	.	4r	.	.	.	.	.	.	.	.
.	.	8gq	_	.	.	.	.	.	.	.
.	.	4a	Mon-	.	.	.	.	.	.	.
=59	=59	=59	=59	=59	=59	=59	=59	=59	=59	=59
1CM	C:5	4g	-key	1r	.	1r	.	a	94.053	.
.	.	4r	.	.	.	.	.	.	.	.
.	.	2r	.	.	.	.	.	.	.	.
=60	=60	=60	=60	=60	=60	=60	=60	=60	=60	=60
.	.	8dq	_	.	.	.	.	.	.	.
1CM	C:5	16e	Whe-	1r	.	1r	.	(A	95.668	.
.	.	8.e	-els	.	.	.	.	a)	.	.
.	.	4f	keep	.	.	.	.	A	.	.
.	.	8dq	_	.	.	.	.	.	.	.
.	.	4e	tur-	.	.	.	.	(E	.	.
.	.	4d	-ning...	.	.	.	.	a)	.	.
=61	=61	=61	=61	=61	=61	=61	=61	=61	=61	=61
1Dm	D:min	1r	.	1r	.	1r	.	.	97.283	newline
=62	=62	=62	=62	=62	=62	=62	=62	=62	=62	=62
*	*	*	*	*clefG2	*	*	*	*	*	*
1Dm	D:min	1r	.	2r	.	1r	.	.	98.898	.
.	.	.	.	8r	.	.	.	.	.	.
.	.	.	.	8d	A	.	.	.	.	.
.	.	.	.	4d	mon-	.	.	.	.	.
=63	=63	=63	=63	=63	=63	=63	=63	=63	=63	=63
.	.	.	.	8ccq	_	.	.	.	.	.
1CM	C:5	1r	.	2.dd	-key	1r	.	a	100.513	.
.	.	.	.	[4cc	_	.	.	.	.	.
=64	=64	=64	=64	=64	=64	=64	=64	=64	=64	=64
.	.	8fq	_	.	.	.	.	.	.	.
1CM	C:sus4	4g	Some-	4cc]	_	1r	.	.	102.128	.
.	.	4f	-thing's	4r	.	.	.	a	.	.
.	.	8dq	_	8ddq	_	.	.	.	.	.
.	.	4e	bur-	[2ee	yeah	.	.	(E	.	.
.	.	[4d	-ning	.	.	.	.	a)	.	.
=65	=65	=65	=65	=65	=65	=65	=65	=65	=65	=65
1Dm	D:min	8d]	_	4ee]	_	1r	.	.	103.743	newline
.	.	8r	.	.	.	.	.	.	.	.
.	.	4r	.	2.dd	_	.	.	.	.	.
.	.	2r	.	.	.	.	.	.	.	.
=66	=66	=66	=66	=66	=66	=66	=66	=66	=66	=66
1Dm	D:min	1r	.	2r	.	1r	.	.	105.362	.
.	.	.	.	4r	.	.	.	.	.	.
.	.	.	.	8gq	_	.	.	.	.	.
.	.	.	.	4a	Mon-	.	.	.	.	.
=67	=67	=67	=67	=67	=67	=67	=67	=67	=67	=67
1CM	C:maj	4r	.	4g	-key	1r	.	a	106.981	.
.	.	4g	Don't	4r	.	.	.	.	.	.
.	.	8g	like	2r	.	.	.	.	.	.
.	.	8f	it	.	.	.	.	.	.	.
.	.	8g	but	.	.	.	.	.	.	.
.	.	8f	I	.	.	.	.	.	.	.
=68	=68	=68	=68	=68	=68	=68	=68	=68	=68	=68
1CM	C:sus4	8a	guess	1r	.	1r	.	.	108.6	.
.	.	4g	I'm	.	.	.	.	.	.	.
.	.	8fq	_	.	.	.	.	.	.	.
.	.	[8g	lear	.	.	.	.	(E	.	.
.	.	8g]	_	.	.	.	.	.	.	.
.	.	8.f	ning!	.	.	.	.	a)	.	.
.	.	8.r	.	.	.	.	.	.	.	.
=69	=69	=69	=69	=69	=69	=69	=69	=69	=69	=69
1B-M	B-:maj	1r	.	1r	.	1r	.	.	110.219	newline
=70	=70	=70	=70	=70	=70	=70	=70	=70	=70	=70
1B-M	B-:maj	2r	.	1r	.	1r	.	.	111.827	.
.	.	8r	.	.	.	.	.	.	.	.
.	.	4G	Shock!	.	.	.	.	B	.	.
.	.	8r	.	.	.	.	.	.	.	.
=71	=71	=71	=71	=71	=71	=71	=71	=71	=71	=71
1B-M	B-:maj	1r	.	1r	.	1r	.	.	113.436	.
=72	=72	=72	=72	=72	=72	=72	=72	=72	=72	=72
1B-M	B-:maj	2r	.	1r	.	1r	.	.	115.044	.
.	.	8r	.	.	.	.	.	.	.	.
.	.	4G	Shock!	.	.	.	.	B	.	.
.	.	8r	.	.	.	.	.	.	.	.
=73	=73	=73	=73	=73	=73	=73	=73	=73	=73	=73
1B-M	B-:maj	1r	.	1r	.	1r	.	.	116.653	newline
=74	=74	=74	=74	=74	=74	=74	=74	=74	=74	=74
1B-M	B-:maj	2r	.	1r	.	1r	.	.	118.273	.
.	.	8r	.	.	.	.	.	.	.	.
.	.	4G	Shock!	.	.	.	.	B	.	.
.	.	8r	.	.	.	.	.	.	.	.
=75	=75	=75	=75	=75	=75	=75	=75	=75	=75	=75
1CM	C:sus4	8r	.	1r	.	1r	.	.	119.893	.
.	.	4a	Watch	.	.	.	.	B	.	.
.	.	8g	the	.	.	.	.	.	.	.
.	.	6g	mon-	.	.	.	.	.	.	.
.	.	6f	-key	.	.	.	.	a	.	.
.	.	6g	get	.	.	.	.	.	.	.
=76	=76	=76	=76	=76	=76	=76	=76	=76	=76	=76
.	.	8gq	_	.	.	.	.	.	.	.
1Dm	D:min	4a	hurt	1r	.	1r	.	E	121.514	.
.	.	4r	.	.	.	.	.	.	.	.
.	.	8fq	_	.	.	.	.	.	.	.
.	.	4g	mon-	.	.	.	.	.	.	.
.	.	4f	-key!	.	.	.	.	a	.	.
=77	=77	=77	=77	=77	=77	=77	=77	=77	=77	=77
*>Letter>A	*>Letter>A	*>Letter>A	*>Letter>A	*>Letter>A	*>Letter>A	*>Letter>A	*>Letter>A	*>Letter>A	*>Letter>A	*>Letter>A
*>Label>Instrumental	*>Label>Instrumental	*>Label>Instrumental	*>Label>Instrumental	*>Label>Instrumental	*>Label>Instrumental	*>Label>Instrumental	*>Label>Instrumental	*>Label>Instrumental	*>Label>Instrumental	*>Label>Instrumental
1Dm	D:min	1r	.	1r	.	1r	.	.	123.134	newline
=78	=78	=78	=78	=78	=78	=78	=78	=78	=78	=78
1Dm	D:min	1r	.	1r	.	1r	.	.	124.765	.
=79	=79	=79	=79	=79	=79	=79	=79	=79	=79	=79
1Dm	D:min	1r	.	1r	.	1r	.	.	126.397	.
=80	=80	=80	=80	=80	=80	=80	=80	=80	=80	=80
1Dm	D:min	1r	.	1r	.	1r	.	.	128.028	.
=81	=81	=81	=81	=81	=81	=81	=81	=81	=81	=81
1Dm	D:min	1r	.	1r	.	1r	.	.	129.659	newline
=82	=82	=82	=82	=82	=82	=82	=82	=82	=82	=82
1Dm	D:min	1r	.	1r	.	1r	.	.	131.255	.
=83	=83	=83	=83	=83	=83	=83	=83	=83	=83	=83
1Dm	D:min	1r	.	1r	.	1r	.	.	132.85	.
=84	=84	=84	=84	=84	=84	=84	=84	=84	=84	=84
1Dm	D:min	2r	.	1r	.	1r	.	.	134.446	.
.	.	8fq	_	.	.	.	.	.	.	.
.	.	4.g	Co-	.	.	.	.	.	.	.
.	.	[8f	-ver	.	.	.	.	.	.	.
=85	=85	=85	=85	=85	=85	=85	=85	=85	=85	=85
*>Letter>B	*>Letter>B	*>Letter>B	*>Letter>B	*>Letter>B	*>Letter>B	*>Letter>B	*>Letter>B	*>Letter>B	*>Letter>B	*>Letter>B
*>Label>Verse	*>Label>Verse	*>Label>Verse	*>Label>Verse	*>Label>Verse	*>Label>Verse	*>Label>Verse	*>Label>Verse	*>Label>Verse	*>Label>Verse	*>Label>Verse
1Dm	D:min	8f]	_	1r	.	1r	.	.	136.042	newline
.	.	8f	me	.	.	.	.	A	.	.
.	.	4r	.	.	.	.	.	.	.	.
.	.	2r	.	.	.	.	.	.	.	.
=86	=86	=86	=86	=86	=86	=86	=86	=86	=86	=86
1Dm	D:min	2r	.	1r	.	1r	.	.	137.667	.
.	.	8dq	_	.	.	.	.	.	.	.
.	.	4e	when	.	.	.	.	.	.	.
.	.	[4d	I	.	.	.	.	.	.	.
=87	=87	=87	=87	=87	=87	=87	=87	=87	=87	=87
1Dm	D:min	8d]	_	1r	.	1r	.	.	139.292	.
.	.	4d	sleep	.	.	.	.	A	.	.
.	.	8r	.	.	.	.	.	.	.	.
.	.	2r	.	.	.	.	.	.	.	.
=88	=88	=88	=88	=88	=88	=88	=88	=88	=88	=88
1Dm	D:min	2r	.	1r	.	1r	.	.	140.917	.
.	.	8fq	_	.	.	.	.	.	.	.
.	.	4.g	Co-	.	.	.	.	.	.	.
.	.	[8f	-ver	.	.	.	.	.	.	.
=89	=89	=89	=89	=89	=89	=89	=89	=89	=89	=89
1Dm	D:min	8f]	_	1r	.	1r	.	.	142.543	newline
.	.	4f	me	.	.	.	.	A	.	.
.	.	8r	.	.	.	.	.	.	.	.
.	.	2r	.	.	.	.	.	.	.	.
=90	=90	=90	=90	=90	=90	=90	=90	=90	=90	=90
1Dm	D:min	2r	.	1r	.	1r	.	.	144.158	.
.	.	8e	when	.	.	.	.	.	.	.
.	.	4.d	I	.	.	.	.	.	.	.
=91	=91	=91	=91	=91	=91	=91	=91	=91	=91	=91
1Dm	D:min	4d	breathe	1r	.	1r	.	A	145.773	.
.	.	4r	.	.	.	.	.	.	.	.
.	.	2r	.	.	.	.	.	.	.	.
=92	=92	=92	=92	=92	=92	=92	=92	=92	=92	=92
1Dm	D:min	2r	.	1r	.	1r	.	.	147.388	.
.	.	4r	.	.	.	.	.	.	.	.
.	.	8r	.	.	.	.	.	.	.	.
.	.	8A	You	.	.	.	.	.	.	.
=93	=93	=93	=93	=93	=93	=93	=93	=93	=93	=93
1Dm	D:min	8d	throw	1r	.	1r	.	.	149.002	newline
.	.	4d	your	.	.	.	.	.	.	.
.	.	[8f	pearls	.	.	.	.	.	.	.
.	.	8f]	_	.	.	.	.	.	.	.
.	.	4f	be-	.	.	.	.	a	.	.
.	.	[8a	-fore	.	.	.	.	.	.	.
=94	=94	=94	=94	=94	=94	=94	=94	=94	=94	=94
1Dm	D:min	8a]	_	1r	.	1r	.	.	150.62	.
.	.	4a	the	.	.	.	.	.	.	.
.	.	8fq	_	.	.	.	.	.	.	.
.	.	[8g	swine	.	.	.	.	F	.	.
.	.	16g]	_	.	.	.	.	.	.	.
.	.	16f	_	.	.	.	.	.	.	.
.	.	[8d	_	.	.	.	.	.	.	.
.	.	4d]	_	.	.	.	.	.	.	.
=95	=95	=95	=95	=95	=95	=95	=95	=95	=95	=95
1Dm	D:min	8r	.	1r	.	1r	.	.	152.237	.
.	.	8d	m-	.	.	.	.	.	.	.
.	.	8d	-make	.	.	.	.	.	.	.
.	.	8d	the	.	.	.	.	.	.	.
.	.	8f	mon-	.	.	.	.	.	.	.
.	.	4f	-key	.	.	.	.	a	.	.
.	.	8ccq	_	.	.	.	.	.	.	.
.	.	[8dd	blind	.	.	.	.	F	.	.
=96	=96	=96	=96	=96	=96	=96	=96	=96	=96	=96
1Dm	D:min	2dd]	_	1r	.	1r	.	.	153.854	.
.	.	8r	.	.	.	.	.	.	.	.
.	.	8fq	_	.	.	.	.	.	.	.
.	.	4g	Co-	.	.	.	.	.	.	.
.	.	[8f	-ver	.	.	.	.	.	.	.
=97	=97	=97	=97	=97	=97	=97	=97	=97	=97	=97
1Dm	D:min	8f]	_	1r	.	1r	.	.	155.472	newline
.	.	4f	me	.	.	.	.	a	.	.
.	.	8r	.	.	.	.	.	.	.	.
.	.	2r	.	.	.	.	.	.	.	.
=98	=98	=98	=98	=98	=98	=98	=98	=98	=98	=98
1Dm	D:min	2r	.	1r	.	1r	.	.	157.096	.
.	.	4e	dar-	.	.	.	.	.	.	.
.	.	4d	-ling,	.	.	.	.	.	.	.
=99	=99	=99	=99	=99	=99	=99	=99	=99	=99	=99
1Dm	D:min	4d	please	1r	.	1r	.	A	158.72	.
.	.	4r	.	.	.	.	.	.	.	.
.	.	2r	.	.	.	.	.	.	.	.
=100	=100	=100	=100	=100	=100	=100	=100	=100	=100	=100
1Dm	D:min	8r	.	1r	.	1r	.	.	160.344	.
.	.	8a	Hey,	.	.	.	.	.	.	.
.	.	8g	_	.	.	.	.	.	.	.
.	.	8f	_	.	.	.	.	.	.	.
.	.	8gq	_	.	.	.	.	.	.	.
.	.	4a	hey,	.	.	.	.	.	.	.
.	.	4g	hey,	.	.	.	.	.	.	.
=101	=101	=101	=101	=101	=101	=101	=101	=101	=101	=101
*>Letter>D	*>Letter>D	*>Letter>D	*>Letter>D	*>Letter>D	*>Letter>D	*>Letter>D	*>Letter>D	*>Letter>D	*>Letter>D	*>Letter>D
*>Label>Bridge	*>Label>Bridge	*>Label>Bridge	*>Label>Bridge	*>Label>Bridge	*>Label>Bridge	*>Label>Bridge	*>Label>Bridge	*>Label>Bridge	*>Label>Bridge	*>Label>Bridge
1Dm	D:5	8f	yeah	1r	.	1r	.	.	161.969	newline
.	.	4d	_	.	.	.	.	.	.	.
.	.	8r	.	.	.	.	.	.	.	.
.	.	2r	.	.	.	.	.	.	.	.
=102	=102	=102	=102	=102	=102	=102	=102	=102	=102	=102
1Dm	D:5	2r	.	1r	.	1r	.	.	163.587	.
.	.	4r	.	.	.	.	.	.	.	.
.	.	8gq	_	.	.	.	.	.	.	.
.	.	4a	Mon-	.	.	.	.	.	.	.
=103	=103	=103	=103	=103	=103	=103	=103	=103	=103	=103
1CM	C:5	4g	-key	1r	.	1r	.	a	165.206	.
.	.	4r	.	.	.	.	.	.	.	.
.	.	2r	.	.	.	.	.	.	.	.
=104	=104	=104	=104	=104	=104	=104	=104	=104	=104	=104
1CM	C:5	4e	Too	1r	.	1r	.	.	166.824	.
.	.	4f	much	.	.	.	.	.	.	.
.	.	4e	at	.	.	.	.	.	.	.
.	.	8cq	_	.	.	.	.	.	.	.
.	.	4d	stake!	.	.	.	.	G	.	.
=105	=105	=105	=105	=105	=105	=105	=105	=105	=105	=105
1Dm	D:min	1r	.	1r	.	1r	.	.	168.443	newline
=106	=106	=106	=106	=106	=106	=106	=106	=106	=106	=106
1Dm	D:min	1r	.	2r	.	1r	.	.	170.056	.
.	.	.	.	8r	.	.	.	.	.	.
.	.	.	.	8d	A	.	.	.	.	.
.	.	.	.	4d	mon-	.	.	.	.	.
=107	=107	=107	=107	=107	=107	=107	=107	=107	=107	=107
.	.	.	.	8ccq	_	.	.	.	.	.
1CM	C:sus4	1r	.	2.dd	-key	1r	.	a	171.67	.
.	.	.	.	[4cc	_	.	.	.	.	.
=108	=108	=108	=108	=108	=108	=108	=108	=108	=108	=108
.	.	8fq	_	.	.	.	.	.	.	.
1CM	C:sus4	4g	Ground	4cc]	_	1r	.	.	173.284	.
.	.	8f	be-	4r	.	.	.	(a	.	.
.	.	[8e	-neath	.	.	.	.	A)	.	.
.	.	.	.	8ddq	_	.	.	.	.	.
.	.	8e]	_	[2ee	yeah	.	.	.	.	.
.	.	4.c	me,	.	.	.	.	A	.	.
=109	=109	=109	=109	=109	=109	=109	=109	=109	=109	=109
1Dm	D:min	4d	shake	4ee]	_	1r	.	.	174.897	newline
.	.	4r	.	2.dd	_	.	.	.	.	.
.	.	2r	.	.	.	.	.	.	.	.
=110	=110	=110	=110	=110	=110	=110	=110	=110	=110	=110
1Dm	D:min	1r	.	2r	.	1r	.	.	176.52	.
.	.	.	.	4r	.	.	.	.	.	.
.	.	.	.	8gq	_	.	.	.	.	.
.	.	.	.	4a	Mon-	.	.	.	.	.
=111	=111	=111	=111	=111	=111	=111	=111	=111	=111	=111
1CM	C:maj	2r	.	4g	-key	1r	.	a	178.142	.
.	.	.	.	4r	.	.	.	.	.	.
.	.	8r	.	2r	.	.	.	.	.	.
.	.	8d	And	.	.	.	.	.	.	.
.	.	8f	the	.	.	.	.	.	.	.
.	.	[8a	news	.	.	.	.	.	.	.
=112	=112	=112	=112	=112	=112	=112	=112	=112	=112	=112
1CM	C:maj	8a]	_	1r	.	1r	.	.	179.765	.
.	.	4g	is	.	.	.	.	.	.	.
.	.	8fq	_	.	.	.	.	.	.	.
.	.	[8g	brea	.	.	.	.	.	.	.
.	.	8g]	_	.	.	.	.	.	.	.
.	.	4.f	king!	.	.	.	.	a	.	.
=113	=113	=113	=113	=113	=113	=113	=113	=113	=113	=113
1B-M	B-:maj	1r	.	1r	.	1r	.	.	181.387	newline
=114	=114	=114	=114	=114	=114	=114	=114	=114	=114	=114
1B-M	B-:maj	2r	.	1r	.	1r	.	.	183.015	.
.	.	8r	.	.	.	.	.	.	.	.
.	.	4G	Shock!	.	.	.	.	B	.	.
.	.	8r	.	.	.	.	.	.	.	.
=115	=115	=115	=115	=115	=115	=115	=115	=115	=115	=115
1B-M	B-:maj	1r	.	1r	.	1r	.	.	184.643	.
=116	=116	=116	=116	=116	=116	=116	=116	=116	=116	=116
1B-M	B-:maj	2r	.	1r	.	1r	.	.	186.271	.
.	.	8r	.	.	.	.	.	.	.	.
.	.	4G	Shock!	.	.	.	.	B	.	.
.	.	8r	.	.	.	.	.	.	.	.
=117	=117	=117	=117	=117	=117	=117	=117	=117	=117	=117
1B-M	B-:maj	1r	.	1r	.	1r	.	.	187.899	newline
=118	=118	=118	=118	=118	=118	=118	=118	=118	=118	=118
1B-M	B-:maj	2r	.	1r	.	1r	.	.	189.51	.
.	.	8r	.	.	.	.	.	.	.	.
.	.	4G	Shock!	.	.	.	.	B	.	.
.	.	8r	.	.	.	.	.	.	.	.
=119	=119	=119	=119	=119	=119	=119	=119	=119	=119	=119
1CM	C:maj	8r	.	1r	.	1r	.	.	191.121	.
.	.	4a	Watch	.	.	.	.	B	.	.
.	.	8g	the	.	.	.	.	.	.	.
.	.	6g	mon-	.	.	.	.	.	.	.
.	.	6f	-key	.	.	.	.	a	.	.
.	.	6g	get	.	.	.	.	.	.	.
=120	=120	=120	=120	=120	=120	=120	=120	=120	=120	=120
.	.	8gq	_	.	.	.	.	.	.	.
1Dm	D:min	4a	hurt	1r	.	1r	.	E	192.732	.
.	.	4r	.	.	.	.	.	.	.	.
.	.	8fq	_	.	.	.	.	.	.	.
.	.	4g	Mon-	.	.	.	.	.	.	.
.	.	4f	-key!	.	.	.	.	a	.	.
=121	=121	=121	=121	=121	=121	=121	=121	=121	=121	=121
*>Letter>E	*>Letter>E	*>Letter>E	*>Letter>E	*>Letter>E	*>Letter>E	*>Letter>E	*>Letter>E	*>Letter>E	*>Letter>E	*>Letter>E
*>Label>Outro	*>Label>Outro	*>Label>Outro	*>Label>Outro	*>Label>Outro	*>Label>Outro	*>Label>Outro	*>Label>Outro	*>Label>Outro	*>Label>Outro	*>Label>Outro
1FM	F:maj	1r	.	1r	.	1r	.	.	194.343	newline
=122	=122	=122	=122	=122	=122	=122	=122	=122	=122	=122
1Am	A:min/5	1r	.	1r	.	1r	.	.	195.959	.
=123	=123	=123	=123	=123	=123	=123	=123	=123	=123	=123
1Dmm	D:min7	8r	.	1r	.	1r	.	.	197.574	.
.	.	8a	Shock	.	.	.	.	B	.	.
.	.	8r	.	.	.	.	.	.	.	.
.	.	8g	the	.	.	.	.	.	.	.
.	.	4g	mon-	.	.	.	.	.	.	.
.	.	4f	-key!	.	.	.	.	a	.	.
=124	=124	=124	=124	=124	=124	=124	=124	=124	=124	=124
1Dmm	D:min7	1r	.	1r	.	1r	.	.	199.19	.
=125	=125	=125	=125	=125	=125	=125	=125	=125	=125	=125
1FM	F:maj	1r	.	1r	.	1r	.	.	200.805	newline
=126	=126	=126	=126	=126	=126	=126	=126	=126	=126	=126
1Am	A:min/5	1r	.	1r	.	1r	.	.	202.431	.
=127	=127	=127	=127	=127	=127	=127	=127	=127	=127	=127
1Dmm	D:min7	8r	.	1r	.	1r	.	.	204.057	.
.	.	8a	Shock	.	.	.	.	B	.	.
.	.	8r	.	.	.	.	.	.	.	.
.	.	8g	the	.	.	.	.	.	.	.
.	.	4g	mon-	.	.	.	.	.	.	.
.	.	4f	-key!	.	.	.	.	a	.	.
=128	=128	=128	=128	=128	=128	=128	=128	=128	=128	=128
1Dmm	D:min7	1r	.	1r	.	1r	.	.	205.682	.
=129	=129	=129	=129	=129	=129	=129	=129	=129	=129	=129
1Dm	D:min	1r	.	4d	Shock	1r	.	B	207.308	newline
.	.	.	.	8~d	the	.	.	.	.	.
.	.	.	.	8~e	mon	.	.	.	.	.
.	.	.	.	8r	.	.	.	.	.	.
.	.	.	.	8~f	key	.	.	a	.	.
.	.	.	.	8~e	to	.	.	.	.	.
.	.	.	.	8~d	life!	.	.	F	.	.
=130	=130	=130	=130	=130	=130	=130	=130	=130	=130	=130
1Dm	D:min	1r	.	1r	.	1r	.	.	208.919	.
=131	=131	=131	=131	=131	=131	=131	=131	=131	=131	=131
1Dm	D:min	1r	.	4d	Shock	1r	.	B	210.531	.
.	.	.	.	8~d	the	.	.	.	.	.
.	.	.	.	8~e	mon	.	.	.	.	.
.	.	.	.	8r	.	.	.	.	.	.
.	.	.	.	8~f	key	.	.	a	.	.
.	.	.	.	8~e	to	.	.	.	.	.
.	.	.	.	8~d	life!	.	.	F	.	.
=132	=132	=132	=132	=132	=132	=132	=132	=132	=132	=132
1Dm	D:min	1r	.	1r	.	1r	.	.	212.142	.
=133	=133	=133	=133	=133	=133	=133	=133	=133	=133	=133
1Dm	D:min	8r	.	4d	Shock	1r	.	B	213.753	newline
.	.	8d	Huh	.	.	.	.	.	.	.
.	.	4r	.	8~d	the	.	.	.	.	.
.	.	.	.	8~e	mon	.	.	.	.	.
.	.	8d	huh	8r	.	.	.	.	.	.
.	.	4r	.	8~f	key	.	.	a	.	.
.	.	.	.	8~e	to	.	.	.	.	.
.	.	8d	huh!	8~d	life!	.	.	F	.	.
=134	=134	=134	=134	=134	=134	=134	=134	=134	=134	=134
1Dm	D:min	1r	.	1r	.	1r	.	.	215.382	.
=135	=135	=135	=135	=135	=135	=135	=135	=135	=135	=135
1Dm	D:min	1r	.	4d	Shock	1r	.	B	217.011	.
.	.	.	.	8~d	the	.	.	.	.	.
.	.	.	.	8~e	mon	.	.	.	.	.
.	.	.	.	8r	.	.	.	.	.	.
.	.	.	.	8~f	key	.	.	a	.	.
.	.	.	.	8~e	to	.	.	.	.	.
.	.	.	.	8~d	life!	.	.	F	.	.
=136	=136	=136	=136	=136	=136	=136	=136	=136	=136	=136
1Dm	D:min	1r	.	1r	.	1r	.	.	218.641	.
=137	=137	=137	=137	=137	=137	=137	=137	=137	=137	=137
*	*	*clefG2	*	*	*	*	*	*	*	*
1Dm	D:min	8r	.	4d	Shock	8r	.	B	220.27	newline
.	.	8a	Shock	.	.	8d	Huh	B	.	.
.	.	8r	.	8~d	the	4r	.	.	.	.
.	.	8g	the	8~e	mon	.	.	.	.	.
.	.	4g	mon-	8r	.	8d	huh	.	.	.
.	.	.	.	8~f	key	4r	.	a	.	.
.	.	4f	-key!	8~e	to	.	.	a	.	.
.	.	.	.	8~d	life!	8d	huh!	F	.	.
=138	=138	=138	=138	=138	=138	=138	=138	=138	=138	=138
1Dm	D:min	8r	.	1r	.	1r	.	.	221.892	.
.	.	8ggq	_	.	.	.	.	.	.	.
.	.	8aa	Shock	.	.	.	.	B	.	.
.	.	8r	.	.	.	.	.	.	.	.
.	.	8cc	the	.	.	.	.	.	.	.
.	.	4dd	mon-	.	.	.	.	.	.	.
.	.	4cc	-key!	.	.	.	.	a	.	.
=139	=139	=139	=139	=139	=139	=139	=139	=139	=139	=139
1Dm	D:min	8r	.	4d	Shock	1r	.	B	223.515	.
.	.	8a	Shock	.	.	.	.	B	.	.
.	.	8r	.	8~d	the	.	.	.	.	.
.	.	8g	the	8~e	mon	.	.	.	.	.
.	.	4g	mon-	8r	.	.	.	.	.	.
.	.	.	.	8~f	key	.	.	a	.	.
.	.	4f	-key!	8~e	to	.	.	a	.	.
.	.	.	.	8~d	life!	.	.	F	.	.
=140	=140	=140	=140	=140	=140	=140	=140	=140	=140	=140
1Dm	D:min	8r	.	1r	.	1r	.	.	225.138	.
.	.	8ggq	_	.	.	.	.	.	.	.
.	.	8aa	Shock	.	.	.	.	B	.	.
.	.	8r	.	.	.	.	.	.	.	.
.	.	8cc	the	.	.	.	.	.	.	.
.	.	4dd	mon-	.	.	.	.	.	.	.
.	.	4cc	-key!	.	.	.	.	a	.	.
=141	=141	=141	=141	=141	=141	=141	=141	=141	=141	=141
1FM	F:maj	1r	.	1r	.	1r	.	.	226.761	newline
=142	=142	=142	=142	=142	=142	=142	=142	=142	=142	=142
1Am	A:min/5	1r	.	1r	.	1r	.	.	228.378	.
=143	=143	=143	=143	=143	=143	=143	=143	=143	=143	=143
1Dm	D:min	8r	.	1r	.	1r	.	.	229.996	.
.	.	8a	Shock	.	.	.	.	B	.	.
.	.	8r	.	.	.	.	.	.	.	.
.	.	8g	the	.	.	.	.	.	.	.
.	.	4g	mon-	.	.	.	.	.	.	.
.	.	4f	-key!	.	.	.	.	a	.	.
=144	=144	=144	=144	=144	=144	=144	=144	=144	=144	=144
1Dm	D:min	1r	.	1r	.	1r	.	.	231.614	.
=145	=145	=145	=145	=145	=145	=145	=145	=145	=145	=145
1Dm	D:min	4d	Shock	1r	.	1r	.	B	233.232	newline
.	.	8~d	the	.	.	.	.	.	.	.
.	.	8~f	mon	.	.	.	.	.	.	.
.	.	8r	.	.	.	.	.	.	.	.
.	.	8~f	key	.	.	.	.	a	.	.
.	.	8~e	to	.	.	.	.	.	.	.
.	.	8~d	life!	.	.	.	.	F	.	.
=146	=146	=146	=146	=146	=146	=146	=146	=146	=146	=146
1Dm	D:min	1r	.	1r	.	1r	.	.	234.538	.
1r;	1r	r;	.	r;	.	r;	.	.	235.845	.
1r;	1r	r;	.	r;	.	r;	.	.	239.047	.
*-	*-	*-	*-	*-	*-	*-	*-	*-	*-	*-
!!!BillboardChartDate: 1982/11/06, 1982/12/04
!!!BillboardPeak: 29, 29
!!!BillboardWeeksOnChart: 18, 18
!!!COC: Peter Gabriel
!!!ENC: Nathaniel Condit-Schultz
!!!EST: Awating manual error checking and editing.
!!!OTL: Shock The Monkey
!!!RDF**chordsym: original McGill chord annotation + (implied pitch class set, with bass pitch in first position)
!!!RDF**harmony: **recip + pitch class of root + harmonic quality
!!!RDF**leadinstrument: original McGill primary instrumentation annotation
!!!RDF**phrase: newline = linebreak in original McGill transcription
!!!RDF**timestamp: McGill audio timestamp in seconds
!!!RDT: 2017/01/12/
!!!SampleActualRank: 60, 39
!!!SampleID#: 92, 141
!!!SampleTargetRank: 59, 39
!!!MBID: 6981f817-90b5-45c3-9704-89ced76fa5f7